packages/core/src/svgs/mmf.svg

<svg width="24" height="24" viewBox="0 0 24 24" fill="none" xmlns="http://www.w3.org/2000/svg">
<g clip-path="url(#clip0_31_13969)">
<path d="M0 0H24V24H0V0Z" fill="#F0F3FA"/>
<path d="M12.0001 19.2858C16.0239 19.2858 19.2858 16.0239 19.2858 12.0001C19.2858 7.97628 16.0239 4.71436 12.0001 4.71436C7.97628 4.71436 4.71436 7.97628 4.71436 12.0001C4.71436 16.0239 7.97628 19.2858 12.0001 19.2858Z" fill="black"/>
<path d="M6.02565 8.38299C6.3471 7.8845 6.71751 7.41934 7.13136 6.99442C7.25565 6.80157 7.41851 6.87871 7.68851 6.99442C7.95422 7.11442 8.68279 7.52157 9.31708 7.89871C9.82708 8.19871 10.3371 8.02728 10.5256 7.89871C10.7142 8.67442 10.5042 9.75871 9.72851 10.1573C9.10708 10.4787 8.27136 10.2901 7.93708 10.1573C7.42416 9.60202 6.82504 9.13314 6.16279 8.76871C5.94851 8.65728 5.98279 8.46871 6.02565 8.38299ZM15.9514 8.10014C16.8942 7.90299 17.0485 7.40157 17.0099 7.17871C17.5285 7.64157 17.1899 8.64442 16.9585 9.08585C17.227 8.99189 17.4714 8.83968 17.6742 8.64014C17.7171 9.74157 16.3585 10.9116 15.5185 10.933C14.6785 10.9587 13.7956 10.5773 13.6328 10.1573C13.4742 9.73728 13.5728 9.39442 13.9242 8.87585C14.2756 8.35728 14.7814 8.34014 15.9514 8.10014Z" fill="#634E77"/>
<path d="M7.53418 6.67266C8.12132 6.11551 9.87846 5.00551 12.2399 5.02266C14.597 5.04409 16.2256 6.29551 16.7399 6.92123V7.57266C16.7399 7.78694 16.1227 7.91551 15.2485 8.09123C15.0127 8.13837 14.7642 8.1898 14.5027 8.2498C14.3142 8.32694 13.8942 8.55837 13.7227 8.8498L11.477 8.50694C11.5199 7.80409 11.1599 7.11837 10.8085 7.13551C10.997 7.2598 11.3527 7.69266 11.297 8.47694L10.7356 8.39123C10.727 8.15123 10.6713 7.6798 10.5085 7.69266C10.457 7.69266 10.397 7.73123 10.3242 7.77409C10.1399 7.8898 9.86989 8.05266 9.37275 7.78694C9.08989 7.63694 8.77275 7.40123 8.47275 7.18694C8.04418 6.87409 7.65846 6.5998 7.53418 6.67266ZM5.24561 10.1741C5.24561 10.1012 5.57561 9.26123 5.67418 9.05123C5.77275 8.83694 5.88418 8.83266 6.01703 8.8798L6.08989 8.90551C6.20561 8.9398 6.32132 8.97409 6.18418 9.10694C6.14561 9.14123 6.08989 9.18409 6.02132 9.22694C5.79418 9.3898 5.43418 9.64266 5.24561 10.1741ZM5.38275 11.2541L7.13989 11.4127C7.06703 11.9012 7.31132 12.2355 7.43989 12.3469L6.49275 12.3898C5.81989 12.2184 5.47275 11.7169 5.31846 11.4898L5.30132 11.4727C5.18561 11.3012 5.30561 11.2584 5.38275 11.2541ZM8.79846 12.5698C8.92703 12.4712 9.20561 12.1841 9.28275 11.8412C9.34703 12.0384 9.34275 12.4541 8.79846 12.5698ZM17.4727 8.16409C17.4348 8.36679 17.376 8.565 17.297 8.75551C17.3956 8.6998 17.6142 8.4298 17.7085 8.30123C17.8456 8.44266 17.8456 8.97409 17.7513 9.25266C17.6742 9.47551 17.747 9.55694 17.7899 9.5698C18.047 9.69837 18.5699 10.2041 18.797 10.4398C18.6213 9.49694 17.9099 8.29694 17.7899 8.09123C17.6699 7.8898 17.4813 8.0098 17.4727 8.16409ZM15.8099 11.7812H14.5713C14.5285 11.7941 14.4513 11.8498 14.507 11.9869C14.6313 12.2055 14.9699 12.6727 15.317 12.7927H15.9085C15.9813 12.7755 16.1313 12.7327 16.1656 12.6855C15.9458 12.4361 15.82 12.1178 15.8099 11.7855V11.7812Z" fill="#F0F3FA"/>
<path d="M6.31715 9.19693C5.91484 9.46948 5.59354 9.84557 5.38715 10.2855L8.12144 10.6412C8.09572 10.7441 7.99287 10.7655 7.94144 10.7612L5.31001 10.4441C5.31001 10.5384 5.36144 10.5726 5.38715 10.5769L8.62287 10.9326C8.76858 10.9584 8.81144 11.0569 8.81144 11.0998L5.21144 10.7012C5.2243 10.7826 5.28001 10.8169 5.31001 10.8298L9.3343 11.2712C9.26854 11.0112 9.17664 10.7585 9.06001 10.5169C8.64695 10.5233 8.23701 10.4445 7.85572 10.2855C7.47202 9.89237 7.05944 9.5285 6.62144 9.19693C6.52287 9.09407 6.37715 9.15407 6.32144 9.19693H6.31715ZM5.38715 12.8784C5.44715 12.8226 5.65715 12.6812 5.75572 12.6169L5.53287 12.4926C5.85001 12.5398 6.21001 12.3812 5.92287 12.3084C5.69572 12.2441 5.28001 11.7169 5.10001 11.4641C5.14287 11.8326 5.5543 12.2312 5.75572 12.3812C5.46741 12.2617 5.21177 12.0751 5.01001 11.8369L5.04001 12.7026C5.04858 12.9898 5.31001 12.9512 5.38287 12.8784H5.38715ZM9.52287 11.7684C9.5743 11.9698 9.55287 12.4069 9.01715 12.5398C9.13287 12.4498 9.39001 12.1669 9.52287 11.7684ZM14.2414 12.4369C14.2029 12.3426 14.2243 12.0084 14.2414 11.8584C14.49 12.6769 15.3557 12.9041 15.7543 12.9169C15.6257 12.9169 15.2957 12.9255 15.0472 12.9169C14.7283 12.8625 14.4411 12.6914 14.2414 12.4369ZM18.9386 12.7626C19.0672 11.9098 18.8829 10.8084 18.7757 10.3626C18.5465 10.1214 18.2821 9.91622 17.9914 9.75407C17.76 9.61693 17.76 9.71979 17.7857 9.79264C18.0767 10.1656 18.2214 10.6319 18.1929 11.1041C18.18 10.8469 17.85 10.2126 17.6957 9.96407C17.5714 9.76264 17.4086 9.87836 17.34 9.96407C16.0972 11.4769 14.7986 11.1084 14.61 11.0441C14.4557 10.9884 14.3614 11.1726 14.3314 11.2755L18.0343 11.3998L18.1114 11.4769L14.3314 11.3612C14.3229 11.4641 14.4043 11.5069 14.4472 11.5155L18.33 11.6441C18.4586 11.6612 18.3386 12.1155 18.2657 12.3384L18.5443 11.9398C18.5216 12.204 18.425 12.4564 18.2657 12.6684C18.4543 12.7412 18.6857 12.4798 18.78 12.3384C18.6986 12.4798 18.5657 12.7841 18.6729 12.8612C18.7757 12.9384 18.8914 12.8269 18.9386 12.7626Z" fill="#DA42E5"/>
<path fill-rule="evenodd" clip-rule="evenodd" d="M10.3543 9.98575L10.3286 10.0115C10.0864 10.2764 9.76166 10.4517 9.4072 10.5086C9.42434 10.6886 9.48434 11.2029 9.5872 11.8072C9.71577 12.5657 9.14149 12.7115 8.96577 12.7115C8.82863 12.7115 8.91006 12.8143 8.96577 12.8657C9.15006 12.96 9.33863 13.1786 9.4072 13.2772L9.33434 13.3372C9.11577 13.0372 8.4772 12.6 7.4272 12.5057C6.77832 12.4567 6.1295 12.6014 5.56292 12.9215C5.21149 13.1357 5.16863 13.4486 5.18577 13.5772L5.32292 13.9715C5.93149 13.4743 6.75006 13.8686 7.08006 14.13V14.2843L6.81434 14.13C6.57006 13.9886 6.46292 14.13 6.4372 14.2157C6.1672 15.63 7.4272 17.2457 9.10292 17.0872C10.7829 16.9329 11.5843 15.4929 11.6658 14.9315C11.7343 14.4815 11.6958 13.68 11.6658 13.3372C11.6615 13.1743 11.5758 12.8229 11.2929 12.7115L10.2729 12.3215V12.3129C10.2943 12.1329 10.4229 11.19 11.8972 11.16C13.0972 11.1343 13.4401 11.9229 13.4615 12.3172C13.0929 12.2915 12.3129 12.4243 12.1458 13.1829C12.023 13.7049 11.9882 14.2437 12.0429 14.7772C12.1501 15.6686 12.8658 17.4129 14.8758 17.2457C16.8858 17.0743 17.4815 15.0857 17.5329 14.1129C17.2201 14.1043 16.5986 14.0957 16.5729 14.1129C17.4986 13.5729 18.1158 13.7743 18.3772 13.8857C18.6386 13.9929 18.7415 13.9072 18.7929 13.6072C18.8108 13.5274 18.8039 13.4441 18.7733 13.3683C18.7427 13.2925 18.6897 13.2279 18.6215 13.1829C16.7701 12.3257 15.6686 13.0286 15.3515 13.4829C15.3129 13.3586 15.4158 13.1486 15.4758 13.0586C14.6272 13.1743 14.2115 12.6172 14.1129 12.3215L14.2415 12.3857L14.1729 11.3572C14.2501 11.1257 14.2029 10.9286 14.1729 10.8557C12.9086 10.1829 13.4101 9.19718 13.8215 8.78575C13.7186 8.52003 13.2815 7.95861 12.3429 7.83861C12.0348 7.79224 11.7202 7.81419 11.4215 7.90289C11.4846 8.13049 11.5012 8.36849 11.4703 8.60265C11.4394 8.83682 11.3615 9.06234 11.2415 9.26575C10.8986 9.79718 10.5601 9.96003 10.3543 9.98575ZM11.2715 7.95861C11.3015 8.12146 11.3143 8.30146 11.2929 8.51575C11.2072 9.48003 10.8001 9.69432 10.6286 9.44146C10.7143 9.16289 10.7701 8.80289 10.7272 8.37003C10.8043 8.25003 10.9843 8.07861 11.2715 7.95861ZM11.3401 9.81432C11.0786 10.1272 10.6629 10.1615 10.4915 10.14L10.4101 10.3286C10.8086 10.4786 11.2372 10.0843 11.4001 9.87003L11.3401 9.81432ZM13.2686 9.20575C13.0886 9.37718 12.7501 9.80575 12.8443 10.1915C12.9386 10.5772 13.4058 10.8129 13.6286 10.8772H13.7958C13.3972 10.6886 12.7372 10.0972 13.2729 9.26575V9.20575H13.2686Z" fill="#F0BC81"/>
<path d="M10.0585 12.5872C10.0585 12.6247 10.0436 12.6607 10.017 12.6872C9.99051 12.7138 9.95453 12.7287 9.91702 12.7287C9.87951 12.7287 9.84354 12.7138 9.81702 12.6872C9.7905 12.6607 9.7756 12.6247 9.7756 12.5872C9.7756 12.5497 9.7905 12.5137 9.81702 12.4872C9.84354 12.4607 9.87951 12.4458 9.91702 12.4458C9.95453 12.4458 9.99051 12.4607 10.017 12.4872C10.0436 12.5137 10.0585 12.5497 10.0585 12.5872ZM7.52988 12.7415C7.53274 12.7541 7.53274 12.7671 7.52987 12.7797C7.527 12.7922 7.52134 12.8039 7.51332 12.814C7.50529 12.8241 7.49509 12.8322 7.48349 12.8378C7.47189 12.8434 7.45918 12.8463 7.44631 12.8463C7.43344 12.8463 7.42073 12.8434 7.40913 12.8378C7.39753 12.8322 7.38733 12.8241 7.3793 12.814C7.37128 12.8039 7.36562 12.7922 7.36275 12.7797C7.35988 12.7671 7.35988 12.7541 7.36274 12.7415C7.36274 12.7188 7.37177 12.697 7.38784 12.6809C7.40392 12.6648 7.42572 12.6558 7.44845 12.6558C7.47119 12.6558 7.49299 12.6648 7.50906 12.6809C7.52514 12.697 7.53417 12.7188 7.53417 12.7415H7.52988ZM8.88845 13.4829C8.89131 13.4955 8.89131 13.5085 8.88844 13.5211C8.88557 13.5336 8.87992 13.5454 8.87189 13.5554C8.86386 13.5655 8.85366 13.5736 8.84206 13.5792C8.83046 13.5848 8.81776 13.5877 8.80488 13.5877C8.79201 13.5877 8.7793 13.5848 8.7677 13.5792C8.7561 13.5736 8.74591 13.5655 8.73788 13.5554C8.72985 13.5454 8.72419 13.5336 8.72132 13.5211C8.71845 13.5085 8.71845 13.4955 8.72131 13.4829C8.72131 13.4602 8.73034 13.4384 8.74642 13.4223C8.76249 13.4063 8.78429 13.3972 8.80702 13.3972C8.82976 13.3972 8.85156 13.4063 8.86763 13.4223C8.88371 13.4384 8.89274 13.4602 8.89274 13.4829H8.88845ZM9.95131 14.1344C9.99678 14.1344 10.0404 14.1163 10.0725 14.0842C10.1047 14.052 10.1227 14.0084 10.1227 13.9629C10.1227 13.9175 10.1047 13.8739 10.0725 13.8417C10.0404 13.8096 9.99678 13.7915 9.95131 13.7915C9.90584 13.7915 9.86224 13.8096 9.83009 13.8417C9.79794 13.8739 9.77988 13.9175 9.77988 13.9629C9.77988 14.0084 9.79794 14.052 9.83009 14.0842C9.86224 14.1163 9.90584 14.1344 9.95131 14.1344ZM10.397 13.1144C10.4345 13.1144 10.4705 13.0995 10.497 13.0729C10.5236 13.0464 10.5385 13.0105 10.5385 12.9729C10.5385 12.9354 10.5236 12.8995 10.497 12.8729C10.4705 12.8464 10.4345 12.8315 10.397 12.8315C10.3595 12.8315 10.3235 12.8464 10.297 12.8729C10.2705 12.8995 10.2556 12.9354 10.2556 12.9729C10.2556 13.0105 10.2705 13.0464 10.297 13.0729C10.3235 13.0995 10.3595 13.1144 10.397 13.1144ZM14.1342 13.5858C14.138 13.6091 14.1367 13.633 14.1304 13.6557C14.1241 13.6785 14.1129 13.6996 14.0976 13.7176C14.0823 13.7356 14.0633 13.75 14.0418 13.7599C14.0204 13.7699 13.9971 13.775 13.9735 13.775C13.9498 13.775 13.9265 13.7699 13.9051 13.7599C13.8836 13.75 13.8646 13.7356 13.8493 13.7176C13.834 13.6996 13.8229 13.6785 13.8165 13.6557C13.8102 13.633 13.8089 13.6091 13.8127 13.5858C13.819 13.5477 13.8386 13.513 13.868 13.488C13.8975 13.463 13.9348 13.4493 13.9735 13.4493C14.0121 13.4493 14.0495 13.463 14.0789 13.488C14.1083 13.513 14.1279 13.5477 14.1342 13.5858ZM13.7142 15.4029C13.7574 15.4029 13.7988 15.3858 13.8293 15.3552C13.8599 15.3247 13.877 15.2833 13.877 15.2401C13.877 15.1969 13.8599 15.1555 13.8293 15.1249C13.7988 15.0944 13.7574 15.0772 13.7142 15.0772C13.671 15.0772 13.6296 15.0944 13.599 15.1249C13.5685 15.1555 13.5513 15.1969 13.5513 15.2401C13.5513 15.2833 13.5685 15.3247 13.599 15.3552C13.6296 15.3858 13.671 15.4029 13.7142 15.4029ZM15.7799 14.2458C15.7799 14.297 15.7596 14.346 15.7234 14.3822C15.6872 14.4183 15.6382 14.4387 15.587 14.4387C15.5359 14.4387 15.4868 14.4183 15.4507 14.3822C15.4145 14.346 15.3942 14.297 15.3942 14.2458C15.3942 14.1947 15.4145 14.1456 15.4507 14.1094C15.4868 14.0733 15.5359 14.0529 15.587 14.0529C15.6382 14.0529 15.6872 14.0733 15.7234 14.1094C15.7596 14.1456 15.7799 14.1947 15.7799 14.2458ZM14.3527 16.5558C14.3829 16.5558 14.4117 16.5438 14.433 16.5225C14.4543 16.5012 14.4663 16.4724 14.4663 16.4422C14.4663 16.4121 14.4543 16.3832 14.433 16.3619C14.4117 16.3406 14.3829 16.3287 14.3527 16.3287C14.3226 16.3287 14.2937 16.3406 14.2724 16.3619C14.2511 16.3832 14.2392 16.4121 14.2392 16.4422C14.2392 16.4724 14.2511 16.5012 14.2724 16.5225C14.2937 16.5438 14.3226 16.5558 14.3527 16.5558Z" fill="black"/>
<path d="M5.64417 14.0871C5.44275 14.1643 5.43846 14.3657 5.46417 14.4557C5.959 15.7565 6.83222 16.8792 7.97119 17.679C9.11016 18.4788 10.4626 18.919 11.8542 18.9428C15.7799 19.0371 17.897 16.1314 18.467 14.6657C18.3685 14.4386 18.0556 14.2628 17.9099 14.2028C17.8585 15.2443 17.057 17.4343 14.7385 17.5114C12.887 17.5671 12.047 16.3328 11.8542 15.7114C11.2927 17.3828 9.61275 17.5243 8.8456 17.3828C6.28275 16.8943 5.99989 15.0728 6.17989 14.2243C6.20132 13.8257 5.89703 13.9928 5.64417 14.0871Z" fill="#F0BC81"/>
</g>
<defs>
<clipPath id="clip0_31_13969">
<rect width="24" height="24" fill="white"/>
</clipPath>
</defs>
</svg>

<svg xmlns="http://www.w3.org/2000/svg" width="24" height="24" fill="none" viewBox="0 0 24 24"><g clip-path="url(#a)"><path fill="#F0F3FA" d="M0 0h24v24H0z"/><path fill="#000" d="M12 19.286a7.286 7.286 0 1 0 0-14.572 7.286 7.286 0 0 0 0 14.572"/><path fill="#634E77" d="M6.026 8.383A9 9 0 0 1 7.13 6.994c.125-.192.288-.115.558 0 .265.12.994.528 1.628.905.51.3 1.02.128 1.209 0 .188.775-.022 1.86-.797 2.258-.622.322-1.458.133-1.792 0A7 7 0 0 0 6.163 8.77c-.214-.112-.18-.3-.137-.386M15.95 8.1c.943-.197 1.098-.698 1.059-.921.518.463.18 1.465-.052 1.907.269-.094.513-.246.716-.446.043 1.102-1.315 2.272-2.155 2.293-.84.026-1.723-.356-1.886-.776-.159-.42-.06-.763.291-1.281.352-.519.857-.536 2.027-.776"/><path fill="#F0F3FA" d="M7.534 6.673c.587-.557 2.344-1.667 4.706-1.65 2.357.021 3.986 1.273 4.5 1.898v.652c0 .214-.617.343-1.491.518a27 27 0 0 0-.746.159c-.189.077-.609.308-.78.6l-2.246-.343c.043-.703-.317-1.389-.668-1.371.188.124.544.557.488 1.34l-.561-.085c-.009-.24-.065-.711-.228-.698-.051 0-.111.038-.184.081-.184.116-.454.279-.951.013-.283-.15-.6-.386-.9-.6-.429-.313-.815-.587-.939-.514m-2.288 3.501c0-.073.33-.913.428-1.123.099-.214.21-.218.343-.171l.073.026c.116.034.231.068.094.2a1 1 0 0 1-.163.12c-.227.164-.587.417-.775.948m.137 1.08 1.757.159c-.073.488.171.822.3.934l-.947.043c-.673-.172-1.02-.673-1.175-.9l-.017-.017c-.115-.172.005-.215.082-.219m3.415 1.316c.129-.099.408-.386.485-.729.064.197.06.613-.485.729m8.675-4.406q-.057.305-.176.592c.099-.056.317-.326.412-.455.137.142.137.673.042.952-.077.223-.004.304.039.317.257.128.78.634 1.007.87-.176-.943-.887-2.143-1.007-2.349-.12-.201-.309-.081-.317.073m-1.663 3.617H14.57c-.043.013-.12.069-.064.206.124.219.463.686.81.806h.591c.073-.018.223-.06.258-.107a1.43 1.43 0 0 1-.356-.9z"/><path fill="#DA42E5" d="M6.317 9.197a2.7 2.7 0 0 0-.93 1.089l2.734.355c-.025.103-.128.124-.18.12l-2.631-.317c0 .094.051.129.077.133l3.236.356c.146.025.188.124.188.167l-3.6-.399a.16.16 0 0 0 .099.129l4.024.441a4 4 0 0 0-.274-.754 3 3 0 0 1-1.204-.231 11 11 0 0 0-1.235-1.09c-.098-.102-.244-.042-.3 0zm-.93 3.681c.06-.055.27-.197.369-.261l-.223-.124c.317.047.677-.112.39-.185-.227-.064-.643-.591-.823-.844.043.369.454.767.656.917a1.96 1.96 0 0 1-.746-.544l.03.866c.009.287.27.248.343.175zm4.136-1.11c.051.202.03.639-.506.772.116-.09.373-.373.506-.772m4.718.669c-.038-.094-.017-.429 0-.579.249.819 1.115 1.046 1.513 1.059-.128 0-.458.008-.707 0a1.3 1.3 0 0 1-.806-.48m4.698.326c.128-.853-.056-1.955-.163-2.4a3.3 3.3 0 0 0-.785-.609c-.231-.137-.231-.034-.205.039.29.373.435.839.407 1.311-.013-.257-.343-.891-.497-1.14-.125-.201-.287-.086-.356 0-1.243 1.513-2.541 1.144-2.73 1.08-.154-.056-.249.129-.279.231l3.703.125.077.077-3.78-.116c-.008.103.073.146.116.154l3.883.13c.129.016.009.47-.064.693l.278-.398c-.022.264-.119.516-.278.728.188.073.42-.188.514-.33-.081.142-.214.446-.107.523.103.077.218-.034.266-.098"/><path fill="#F0BC81" fill-rule="evenodd" d="m10.354 9.986-.025.025a1.6 1.6 0 0 1-.922.498c.017.18.077.694.18 1.298.129.759-.446.904-.621.904-.137 0-.056.103 0 .155.184.094.373.313.441.411l-.073.06c-.218-.3-.857-.737-1.907-.831a3.3 3.3 0 0 0-1.864.415c-.352.215-.394.528-.377.656l.137.395c.608-.498 1.427-.103 1.757.158v.154l-.266-.154c-.244-.141-.351 0-.377.086-.27 1.414.99 3.03 2.666 2.871 1.68-.154 2.481-1.594 2.563-2.155.068-.45.03-1.252 0-1.595-.005-.163-.09-.514-.373-.626l-1.02-.39v-.008c.021-.18.15-1.123 1.624-1.153 1.2-.026 1.543.763 1.564 1.157-.368-.026-1.148.107-1.315.866a4.8 4.8 0 0 0-.103 1.594c.107.892.823 2.636 2.833 2.469 2.01-.172 2.606-2.16 2.657-3.133-.313-.009-.934-.017-.96 0 .926-.54 1.543-.339 1.804-.227.262.107.364.021.416-.279a.4.4 0 0 0-.171-.424c-1.852-.857-2.953-.154-3.27.3-.04-.124.064-.334.124-.424-.849.115-1.265-.442-1.363-.737l.129.064-.07-1.029a.76.76 0 0 0 0-.501c-1.263-.673-.762-1.659-.35-2.07-.103-.266-.54-.827-1.48-.947a2.1 2.1 0 0 0-.92.064 1.76 1.76 0 0 1-.18 1.363c-.343.531-.682.694-.888.72m.918-2.027c.03.162.042.342.02.557-.085.964-.492 1.178-.663.925.085-.278.141-.638.098-1.071.077-.12.257-.291.544-.411m.068 1.855c-.261.313-.677.348-.848.326l-.082.189c.399.15.827-.245.99-.459zm1.929-.608c-.18.171-.519.6-.425.986.095.385.562.62.785.685h.167c-.399-.188-1.059-.78-.523-1.611v-.06z" clip-rule="evenodd"/><path fill="#000" d="M10.059 12.587a.141.141 0 1 1-.283 0 .141.141 0 0 1 .283 0m-2.53.155a.086.086 0 0 1-.12.096.086.086 0 0 1-.046-.096.086.086 0 0 1 .171 0zm1.36.74a.086.086 0 0 1-.121.097.086.086 0 0 1-.047-.096.086.086 0 0 1 .172 0zm1.062.652a.171.171 0 1 0 0-.343.171.171 0 0 0 0 .343m.446-1.02a.141.141 0 1 0 0-.282.141.141 0 0 0 0 .282m3.737.472a.163.163 0 0 1-.285.132.164.164 0 0 1 .019-.23.163.163 0 0 1 .266.098m-.42 1.817a.162.162 0 0 0 .115-.278.163.163 0 1 0-.115.278m2.066-1.157a.193.193 0 1 1-.386 0 .193.193 0 0 1 .386 0m-1.427 2.31a.113.113 0 1 0 0-.227.113.113 0 0 0 0 .227"/><path fill="#F0BC81" d="M5.644 14.087c-.201.077-.206.279-.18.369a6.96 6.96 0 0 0 6.39 4.487c3.926.094 6.043-2.812 6.613-4.277-.098-.227-.411-.403-.557-.463-.052 1.041-.853 3.231-3.171 3.308-1.852.056-2.692-1.178-2.885-1.8-.561 1.672-2.241 1.813-3.008 1.672-2.563-.489-2.846-2.31-2.666-3.159.021-.398-.283-.231-.536-.137"/></g><defs><clipPath id="a"><path fill="#fff" d="M0 0h24v24H0z"/></clipPath></defs></svg>
